svgs/duotone/roller-coaster.svg

<svg xmlns="http://www.w3.org/2000/svg" viewBox="0 0 640 512"><!--! Font Awesome Pro 6.5.1 by @fontawesome - https://fontawesome.com License - https://fontawesome.com/license (Commercial License) Copyright 2023 Fonticons, Inc. --><defs><style>.fa-secondary{opacity:.4}</style></defs><path class="fa-secondary" d="M200 105.9c14 7 26.2 17.4 35.3 30.5L248 154.7V456c0 13.3-10.7 24-24 24s-24-10.7-24-24V105.9zm96 117.9l48 69.1V456c0 13.3-10.7 24-24 24s-24-10.7-24-24V223.8zm96 128.2c14.2 11.5 30.5 20.2 48 25.6V456c0 13.3-10.7 24-24 24s-24-10.7-24-24V351.9zM488 384h8c13.9 0 27.3-2 40-5.6V456c0 13.3-10.7 24-24 24s-24-10.7-24-24V384zM104 113.1c13.7-9.7 30.2-15.8 48-16.9V456c0 13.3-10.7 24-24 24s-24-10.7-24-24V113.1z"/><path class="fa-primary" d="M158.1 96c-52 0-94.1 42.1-94.1 94.1V448c0 17.7-14.3 32-32 32s-32-14.3-32-32V190.1C0 102.8 70.8 32 158.1 32c51.8 0 100.3 25.4 129.8 67.9l129 185.7c15 21.5 39.5 34.4 65.7 34.4H496c44.2 0 80-35.8 80-80c0-32.8-19.7-61-48-73.3V264c0 13.3-10.7 24-24 24s-24-10.7-24-24V160.6c-14.2 1.5-28 5.8-40.7 12.5l-7.3 3.9v74.2L357.6 144.2l51.6-27.5C434.7 103.1 463.1 96 492 96h4c79.5 0 144 64.5 144 144c0 2.7-.1 5.4-.2 8h.2V448c0 17.7-14.3 32-32 32s-32-14.3-32-32V359.8c-22.9 15.3-50.4 24.2-80 24.2H482.6c-47.2 0-91.4-23.1-118.3-61.9l-129-185.7C217.7 111.1 188.9 96 158.1 96z"/></svg>

<svg xmlns="http://www.w3.org/2000/svg" viewBox="0 0 640 512"><!--! Font Awesome Pro 6.1.1 by @fontawesome - https://fontawesome.com License - https://fontawesome.com/license (Commercial License) Copyright 2022 Fonticons, Inc. --><defs><style>.fa-secondary{opacity:.4}</style></defs><path class="fa-primary" d="M158.1 96C106.1 96 64 138.1 64 190.1V448C64 465.7 49.67 480 32 480C14.33 480 0 465.7 0 448V190.1C0 102.8 70.77 32 158.1 32C209.9 32 258.4 57.37 287.9 99.9L416.9 285.6C431.8 307.2 456.4 320 482.6 320H496C540.2 320 576 284.2 576 240C576 207.2 556.3 179 528 166.7V264C528 277.3 517.3 288 504 288C490.7 288 480 277.3 480 264V160.6C465.8 162.2 451.1 166.4 439.3 173.2L432 177.1V251.3L357.6 144.2L409.2 116.7C434.7 103.1 463.1 96 492 96H496C575.5 96 640 160.5 640 240C640 242.7 639.9 245.4 639.8 248H640V448C640 465.7 625.7 480 608 480C590.3 480 576 465.7 576 448V359.8C553.1 375.1 525.6 384 496 384H482.6C435.4 384 391.2 360.9 364.3 322.1L235.3 136.4C217.7 111.1 188.9 96 158.1 96H158.1z"/><path class="fa-secondary" d="M235.3 136.4L248 154.7V456C248 469.3 237.3 480 224 480C210.7 480 200 469.3 200 456V105.9C213.1 112.8 226.2 123.2 235.3 136.4V136.4zM344 292.9V456C344 469.3 333.3 480 320 480C306.7 480 296 469.3 296 456V223.8L344 292.9zM440 377.6V456C440 469.3 429.3 480 416 480C402.7 480 392 469.3 392 456V351.9C406.2 363.5 422.5 372.2 440 377.6V377.6zM496 384C509.9 384 523.3 382 536 378.4V456C536 469.3 525.3 480 512 480C498.7 480 488 469.3 488 456V384H496zM104 113.1C117.7 103.4 134.2 97.32 152 96.19V456C152 469.3 141.3 480 128 480C114.7 480 104 469.3 104 456V113.1z"/></svg>
